!!!COM: Robert Schumann
!!!CNT: Deutsch
!!!TXO: Deutsch
!!!OTL: Lust der Strumnacht
!!!LYR: Kerner
!!!OPR: Zwo2lf Gedichte
!!!OPS: Op.35
!!!ONM: No. 1
!!!ENC: Ben Fuhrman
!!!YOR: Schumann Lieder - Max Friedlaender, ed.,
!!!YOR: New York: C. F. Peters, Vol. 2
!!!ODT: 1840/
!!NB: Vocal melody and text only encoded.
!!NB: First instance of melodic material only encoded.
**kern	**silbe
*clefG2	*
*k[b-e-a-d-g-]	*
*M6/8	*
!!created: 06/27/06 8:30
!!proofed and posted: 06/27/06 8:30
!!edit time: 70 minutes
=1	=1
4r	.
8r	.
{4d-	{Wenn
8e-	durch
=2	=2
4f-	Berg'
8g-	und
(8a-	Ta-
8ff-)	|
8ee-	-le
=3	=3
4dd-	drau-
8a-	-ssen
4f-	Re-
8g-	-gen
=4	=4
4a-	schau-
8a-	-ert,
(8.a-	Stu2r-
16g-)	|
8f-	-me
=5	=5
4e-	brau-
8e-	-sen,
4d-	Schild
8e-	und
=6	=6
4f-	Fen-
8g-	-ster
(8a-	hell
8ff-)	|
8ee-	er-
=7	=7
4dd-	-klir-
8a-	-ren,
4f-	und
8g-	in
=8	=8
4a-	Nacht
8a-	die
(8a-	Wand-
8g-)	|
8f-	-rer
=9	=9
4e-	ir-
8e-}	-ren,}
4r	.
8r	.
!! rest to measure 11
=11	=11
4r	.
8r	.
{4dd-	{ruht
8cc	es
=12	=12
4b-	sich
8a-	so
(8gn	su2ss
8a-)	|
8b-	hier
=13	=13
4cc	in-
8cc}	-nen}
4r	.
8r	.
!! rest to measure 15
=15	=15
4r	.
8r	.
{4dd-	{auf-
8cc	-ge-
=16	=16
4b-	-lo2st
8a-	in
(8gn	sel-
8a-)	|
8b-	-ges
=17	=17
4cc	Min-
8cc	-nen;
8r	.
8a-	all
8a-	der
=18	=18
4dd-	gold-
8a-	-ne
(8a-	Him-
qb-	|
qa-	|
8g-)	|
8a-	-mels
=19	=19
4b-	schim-
8g-	-mer
4g-	flieht
8b-	her-
=20	=20
4dd-	ein
8a-	ins
(8a-	stil-
qb-	|
qa-	|
8g-)	|
8a-	-le
=21	=21
4b-	Zim-
8b-}	-mer.}
4r	.
8r	.
!! rest to measure 23
=23	=23
4r	.
8r	.
{4cc-	{rei-
8b-	-ches
=24	=24
4a-	Le-
8g-	-ben,
(8f	hab'
8g-)	|
8a-	Er-
=25	=25
4b-	bar-
8b-}	-men,}
4r	.
8r	.
!! rest to measure 27
=27	=27
4r	.
8r	.
{4cc-	{halt'
8b-	mich
=28	=28
4a-	fest
8g-	in
(8f	lin-
8g-)	|
8a-	-den
=29	=29
4b-	Ar-
8b-	-men!
4b-	Len-
8a-	-zes
=30	=30
4g-	blu-
8f	-men
4e-	auf-
8d-	-wa2rts
=31	=31
4c	drin-
8c	-gen,
4c	Wolk-
8d-	-lein
=32	=32
4e-	ziehn
8f	und
4g-	Vo2g-
8gn	-lein
=33	=33
4a-	sin-
8a-}	-gen.}
4r	.
8r	.
=34	=34
4r	.
8r	.
{4d-	{en-
8e-	-de
=35	=35
4f-	nie,
8g-	du
(8a-	Sturm-
8ff-)	|
8e-	-nacht
=36	=36
4dd-	wil-
8a-	-de!
4f-	Klirrt,
8g-	ihr
=37	=37
4a-	Fen-
8a-	-ster,
(8a-	schwankt,
8g-)	|
8f-	ihr
=38	=38
4e-	Schil-
8e-	-de
4d-	ba2umnt
8e-	euch,
=39	=39
4f-	Wa2l-
8g-	-der,
(8a-	braus',
8ff-)	|
8e-	o
=40	=40
4dd-	Wel-
8a-	le!
4f-	mich
8cc-	um-
=41	=41
4cc-	-fa2ngt
8cc-	des
(8.cn	Him
16b-)	|
8cn	-mels
=42	=42
4dd-	Hel-
8dd-	le,
4f-	mich
8cc-	um-
=43	=43
4cc-	-fa2ngt
8cc-	des
(8.cn	Him-
16b-)	|
8cn	-mels
=44	=44
4dd-	Hel-
[8dd-	-le.
4.dd-_	|
=45	=45
4.dd]}	|}
4r	.
8r	.
==	==
*-	*-
